X: 22
T: The Sequel
%R: jig
B: "Twenty Four Country Dances with Figures for the Year 1813", Button & Whitaker, p.11 #2
F: http://www.vwml.org/browse/browse-collections-dance-tune-books/browse-button1813
Z: 2015 John Chambers <jc:trillian.mit.edu>
N: The Figures by Mr WILSON.
M: 6/8
L: 1/8
K: Bb
% - - - - - - - - - - - - - - - - - - - - - - - - - - - - -
F/E/ |\
DFB d2d | DFB d2d | ede dcB | ABc c2 F/E/ |\
DFB d2B/A/ | GBe g2g | fed cBc | dBB B2 |]
f |\
b2f def | g2f f2f | ede dcB | cAF F2 F/E/ |\
DFB d2B/A/ | GBe g2g | fed cBc | dBB B2 |]
% - - - - - - - - - - Dance description - - - - - - - - - -
%%text SINGLE FIGURE (Tune play'd straight thro')
%%begintext align
%% Set and change sides and back again .| lead down the
%% middle up again and right and left at top .| .
%%endtext
%%text DOUBLE FIGURE (Each strain repeated)
%%begintext align
%% Hey contrary sides .| hey on your own sides |: cross over 2 Cu: to the
%% bottom .| cross up one Cu: & half figure round the top Cu: |: .
%%endtext

%%sep 2 1 500
%%sep 1 1 500

